X:1
T:Mikrokosmos No. 1 (theme)
C:Béla Bartók
K:C
M:4/4
L:1/4
Q:1/4=100
C D E F|G F E D|C E G E|C4|D F E G|G E F D|E C D E|C4|]
